src/assets/blue-logo.svg

<svg fill="none" height="61" viewBox="0 0 658 61" width="658" xmlns="http://www.w3.org/2000/svg"><g fill="#3cc5d1"><path d="m58.9658 39.7361c-2.0549-1.9989-3.0777-3.0053-5.128-5.0275-11.8411-11.3411-23.4733-22.8904-34.8966-34.647809h-18.9412s5.49664 2.059469 5.16952 8.256569v52.43764c4.51527-.3479 9.03058-.688 13.54588-1.0204v-41.0546c10.379 10.167 20.9161 20.1615 31.6115 29.9837 5.9896 5.2326 14.2093 8.1448 22.1617 7.4552.0215-18.6876.0461-37.3736.0737-56.058109h-13.5596c-.0123 13.226709-.0246 26.451809-.0369 39.675309z"/><path d="m148.036 1.86866c-2.703-1.208354-6.452-1.81404-11.247-1.8171463h-30.003c-4.866 0-8.6682.6352253-11.4081 1.9057063-2.7399 1.27048-4.6596 3.14824-5.7593 5.63329-1.0965 2.48509-1.6479 5.53859-1.6541 9.16049 0 7.216-.0122 14.4366-.0368 21.6619 0 3.6903.5606 6.7578 1.6817 9.2025 1.1211 2.4446 3.0532 4.2121 5.7962 5.3025 2.7322 1.0949 6.5014 1.5003 11.2924 1.2487 9.998-.5218 19.998-1.0142 29.999-1.4771 5.027-.1351 11.058-1.0064 14.698-4.6594 2.677-2.6746 4.022-6.7469 4.031-11.9189 0-6.7904.013-13.5778.037-20.362 0-3.4169-.56-6.27778-1.681-8.58266-1.122-2.30489-3.037-4.07088-5.746-5.29788zm-6.197 35.70554c.03.8968-.145 1.7886-.512 2.6056-.367.8171-.915 1.5376-1.603 2.1052-1.406 1.1835-3.375 1.8249-5.906 1.9243-8.045.3107-16.089.6414-24.134.9924-2.534.1119-4.531-.368-5.99-1.4397s-2.191-2.659-2.197-4.762c0-7.8652.012-15.7288.036-23.5909-.024-.9157.169-1.824.563-2.6486s.979-1.5414 1.704-2.0901c1.505-1.18349 3.493-1.78612 5.962-1.80787l24.134-.19566c2.465 0 4.414.58242 5.851 1.78923.669.5151 1.211 1.1798 1.584 1.9421.372.7623.565 1.6015.563 2.4518z"/><path d="m237.573 6.71021c-1.161-2.20393-3.225-3.87665-6.211-4.98094-3.847-1.425802-8.754-1.7985488-12.79-1.6774025h-55.045s8.395 1.9662925 8.385 6.9892125c-.024 14.73632-.05 29.47422-.078 44.21372 15.555-.5684 31.109-1.0624 46.664-1.4817 4.317-.2656 8.828-.3961 12.901-1.9943 2.976-1.1695 5.04-2.8935 6.174-5.1254 1.133-2.2319 1.705-5.0089 1.705-8.3544l.027-19.3322c.009-3.3051-.568-6.05732-1.732-8.25659zm-11.86 28.79559c-.073 3.9885-2.749 6.0386-8.026 6.1505-10.75.2422-21.501.514-32.252.8154.019-11.3785.039-22.76.06-34.14461 10.751-.05591 21.501-.10876 32.252-.15846 3.013 0 5.102.56691 6.266 1.70072.561.53285 1.005 1.17815 1.305 1.89465.3.7164.449 1.4884.437 2.2663-.016 7.1569-.029 14.3154-.042 21.4755z"/><path d="m312.738 1.73359c-2.706-1.124487-6.456-1.6851698-11.251-1.6820635h-29.999c-4.866 0-8.668.5668565-11.408 1.7006635-2.74 1.1338-4.66 2.79883-5.759 4.995-1.097 2.19305-1.648 4.90021-1.654 8.12141v19.225c0 3.2772.562 6.0154 1.686 8.2147 1.124 2.1992 3.058 3.8316 5.801 4.8971 2.739 1.0623 6.51 1.5593 11.311 1.491 10.007-.1305 20.015-.2314 30.022-.3029 4.921.056 10.933-.4659 14.702-3.8068 2.668-2.381 4.013-6.1505 4.013-10.9684 0-6.3182 0-12.638 0-18.9593 0-3.1747-.565-5.84149-1.695-8.00037-1.131-2.15889-3.054-3.80056-5.769-4.92504zm-6.109 32.90521c.027.8348-.152 1.6633-.52 2.4108-.368.7476-.915 1.3906-1.591 1.8712-1.403 1.0499-3.374 1.5827-5.911 1.5982-8.054.0497-16.107.1165-24.161.2004-2.534.0279-4.531-.4597-5.99-1.4631-.708-.464-1.284-1.1071-1.671-1.8655-.387-.7583-.572-1.6058-.536-2.4585 0-7.042 0-14.084 0-21.126-.014-.8431.186-1.6757.582-2.4176.397-.7419.975-1.368 1.681-1.8179 1.508-1.05305 3.495-1.58113 5.961-1.58424l24.148-.04192c2.457 0 4.409.55913 5.856 1.6774 1.438 1.12296 2.161 2.47886 2.156 4.06776z"/><path d="m395.718.0513456c-7.065 12.6147544-14.15 25.2139544-21.254 37.7976544-6.964-12.6086-13.944-25.2078-20.941-37.7976544h-23.913s7.018.8899434 7.018 6.5651744v41.69298c4.524 0 9.049.0155 13.573.0465 0-10.2135 0-20.4286 0-30.6453h1.027c1.645 2.8609 2.47 4.2914 4.115 7.1617 4.328 7.8186 8.65 15.6418 12.965 23.4697 4.976.0466 7.464.0699 12.44.1351 4.316-7.7968 8.627-15.5952 12.933-23.3952 1.599-2.8702 2.401-4.31 4-7.1896h1.133v15.5533 15.4229c4.518.0746 9.041.1569 13.569.2469-.019-16.3578-.039-32.7172-.06-49.0781465z"/><path d="m450.675.0515137c-9.909 16.4820863-19.922 32.8973863-30.04 49.2458863 5.003.1119 10.007.2299 15.011.3542 2.663-4.1936 3.999-6.3322 6.662-10.577 12.265.2671 24.53.5684 36.795.9039 2.433 4.4638 3.649 6.7097 6.082 11.2154 5.274.2019 10.549.4084 15.826.6197-9.878-17.3488-19.91-34.6028-30.095-51.7620863zm-4.676 30.7897863c4.736-7.6819 9.449-15.3794 14.14-23.09233h1.027c4.74 7.86523 9.447 15.74893 14.122 23.65143-9.765-.2019-19.528-.3883-29.289-.5591z"/><path d="m565.441 32.118c1.955-.8889 3.664-2.2507 4.976-3.9652 1.101-1.4638 1.901-3.135 2.355-4.9157.386-1.5008.59-3.0436.608-4.5943v-1.7892c-.015-1.8648-.19-3.7248-.525-5.5587-.36-1.98717-1.147-3.87038-2.304-5.51687-1.201-1.724-3.053-3.12184-5.557-4.19352-2.503-1.071681-5.945-1.5997087-10.325-1.58417715h-52.902s8.399 1.57019715 8.413 7.18020715c.027 15.01906.053 30.03656.078 45.05246 4.525.1957 9.046.3976 13.564.6057 0-6.6662-.012-13.3338-.036-20.0031l3.183.0932c5.414.1584 8.091.9039 11.671 2.2598 4.445 1.7164 8.698 3.9029 12.689 6.5233 7.221 4.8086 14.398 9.6762 21.53 14.6028 6.632.3945 13.259.8014 19.881 1.2208-11.675-8.2566-23.608-16.2383-35.772-23.7354 3.493-.0745 6.317-.6352 8.473-1.6821zm-19.273-7.0404c-2.055.0404-4.383.031-6.984-.028-2.194-.0528-4.557-.1366-7.091-.2516-2.534-.1149-5.308-.2966-8.321-.5452l-.028-15.60918 28.045.22831c3.014.02174 5.104.71911 6.271 2.09207 1.179 1.4009 1.804 3.1933 1.756 5.0323v2.134c.039.8602-.099 1.7194-.408 2.5219-.309.8026-.781 1.5308-1.385 2.1376-1.193 1.1788-3.336 1.9243-6.312 2.1154-1.617.0652-3.488.1072-5.543.1724z"/><path d="m644.449.0605722v43.2072278c0 3.1312-.82 5.2078-2.46 6.2297-1.731 1.0388-3.741 1.5001-5.745 1.3187-7.253-.4536-14.506-.89-21.761-1.3093-2.091-.0591-4.122-.7185-5.856-1.9011-1.576-1.1276-2.365-3.2197-2.368-6.2763l-.042-41.2735918h-13.564c.018 13.4192918.035 26.8400918.05 40.2624918-.193 4.1003 1.152 9.4401 3.714 12.711 3.078 3.9279 8.293 5.3677 13.044 5.5914 10.643.7268 21.283 1.4895 31.92 2.2878 4.239.3168 7.556-.191 9.952-1.5563 2.375-1.3457 4.194-3.5081 5.128-6.0946 1.027-2.6932 1.539-5.9222 1.539-9.6591v-43.5380278z"/></g></svg>

<svg width="658" height="61" viewBox="0 0 658 61" fill="none" xmlns="http://www.w3.org/2000/svg">
<path d="M58.9658 39.7361C56.9109 37.7372 55.8881 36.7308 53.8378 34.7086C41.9967 23.3675 30.3645 11.8182 18.9412 0.060791H0C0 0.060791 5.49664 2.12026 5.16952 8.31736C5.16952 25.7997 5.16952 43.2789 5.16952 60.755C9.68479 60.4071 14.2001 60.067 18.7154 59.7346V18.68C29.0944 28.847 39.6315 38.8415 50.3269 48.6637C56.3165 53.8963 64.5362 56.8085 72.4886 56.1189C72.5101 37.4313 72.5347 18.7453 72.5623 0.060791H59.0027C58.9904 13.2875 58.9781 26.5126 58.9658 39.7361Z" fill="#3CC5D1"/>
<path d="M148.036 1.86866C145.333 0.660306 141.584 0.05462 136.789 0.0515137H106.786C101.92 0.0515137 98.1178 0.686739 95.3779 1.95722C92.638 3.2277 90.7183 5.10546 89.6186 7.59051C88.5221 10.0756 87.9707 13.1291 87.9645 16.751C87.9645 23.967 87.9523 31.1876 87.9277 38.4129C87.9277 42.1032 88.4883 45.1707 89.6094 47.6154C90.7305 50.06 92.6626 51.8275 95.4056 52.9179C98.1378 54.0128 101.907 54.4182 106.698 54.1666C116.696 53.6448 126.696 53.1524 136.697 52.6895C141.724 52.5544 147.755 51.6831 151.395 48.0301C154.072 45.3555 155.417 41.2832 155.426 36.1112C155.426 29.3208 155.439 22.5334 155.463 15.7492C155.463 12.3323 154.903 9.47142 153.782 7.16654C152.66 4.86165 150.745 3.09566 148.036 1.86866ZM141.839 37.5742C141.869 38.471 141.694 39.3628 141.327 40.1798C140.96 40.9969 140.412 41.7174 139.724 42.285C138.318 43.4685 136.349 44.1099 133.818 44.2093C125.773 44.52 117.729 44.8507 109.684 45.2017C107.15 45.3136 105.153 44.8337 103.694 43.762C102.235 42.6903 101.503 41.103 101.497 39C101.497 31.1348 101.509 23.2712 101.533 15.4091C101.509 14.4934 101.702 13.5851 102.096 12.7605C102.49 11.9359 103.075 11.2191 103.8 10.6704C105.305 9.48691 107.293 8.88428 109.762 8.86253L133.896 8.66687C136.361 8.66687 138.31 9.24929 139.747 10.4561C140.416 10.9712 140.958 11.6359 141.331 12.3982C141.703 13.1605 141.896 13.9997 141.894 14.85L141.839 37.5742Z" fill="#3CC5D1"/>
<path d="M237.573 6.71021C236.412 4.50628 234.348 2.83356 231.362 1.72927C227.515 0.303468 222.608 -0.0692788 218.572 0.0518675H163.527C163.527 0.0518675 171.922 2.01816 171.912 7.04108C171.888 21.7774 171.862 36.5153 171.834 51.2548C187.389 50.6864 202.943 50.1924 218.498 49.7731C222.815 49.5075 227.326 49.377 231.399 47.7788C234.375 46.6093 236.439 44.8853 237.573 42.6534C238.706 40.4215 239.278 37.6445 239.278 34.299L239.305 14.9668C239.314 11.6617 238.737 8.90948 237.573 6.71021ZM225.713 35.5058C225.64 39.4943 222.964 41.5444 217.687 41.6563C206.937 41.8985 196.186 42.1703 185.435 42.4717C185.454 31.0932 185.474 19.7117 185.495 8.32709C196.246 8.27118 206.996 8.21833 217.747 8.16863C220.76 8.16863 222.849 8.73554 224.013 9.86935C224.574 10.4022 225.018 11.0475 225.318 11.764C225.618 12.4804 225.767 13.2524 225.755 14.0303C225.739 21.1872 225.726 28.3457 225.713 35.5058Z" fill="#3CC5D1"/>
<path d="M312.738 1.73359C310.032 0.609103 306.282 0.0484202 301.487 0.0515265H271.488C266.622 0.0515265 262.82 0.618383 260.08 1.75219C257.34 2.88599 255.42 4.55102 254.321 6.74719C253.224 8.94024 252.673 11.6474 252.667 14.8686C252.667 21.2769 252.667 27.6853 252.667 34.0936C252.667 37.3708 253.229 40.109 254.353 42.3083C255.477 44.5075 257.411 46.1399 260.154 47.2054C262.893 48.2677 266.664 48.7647 271.465 48.6964C281.472 48.5659 291.48 48.465 301.487 48.3935C306.408 48.4495 312.42 47.9276 316.189 44.5867C318.857 42.2057 320.202 38.4362 320.202 33.6183C320.202 27.3001 320.202 20.9803 320.202 14.659C320.202 11.4843 319.637 8.81751 318.507 6.65863C317.376 4.49974 315.453 2.85807 312.738 1.73359ZM306.629 34.6388C306.656 35.4736 306.477 36.3021 306.109 37.0496C305.741 37.7972 305.194 38.4402 304.518 38.9208C303.115 39.9707 301.144 40.5035 298.607 40.519C290.553 40.5687 282.5 40.6355 274.446 40.7194C271.912 40.7473 269.915 40.2597 268.456 39.2563C267.748 38.7923 267.172 38.1492 266.785 37.3908C266.398 36.6325 266.213 35.785 266.249 34.9323C266.249 27.8903 266.249 20.8483 266.249 13.8063C266.235 12.9632 266.435 12.1306 266.831 11.3887C267.228 10.6468 267.806 10.0207 268.512 9.5708C270.02 8.51775 272.007 7.98967 274.473 7.98656L298.621 7.94464C301.078 7.94464 303.03 8.50377 304.477 9.62204C305.915 10.745 306.638 12.1009 306.633 13.6898L306.629 34.6388Z" fill="#3CC5D1"/>
<path d="M395.718 0.0513456C388.653 12.6661 381.568 25.2653 374.464 37.849C367.5 25.2404 360.52 12.6412 353.523 0.0513456H329.61C329.61 0.0513456 336.628 0.941289 336.628 6.61652C336.628 20.5142 336.628 34.4118 336.628 48.3095C341.152 48.3095 345.677 48.325 350.201 48.356C350.201 38.1425 350.201 27.9274 350.201 17.7107H351.228C352.873 20.5716 353.698 22.0021 355.343 24.8724C359.671 32.691 363.993 40.5142 368.308 48.3421C373.284 48.3887 375.772 48.412 380.748 48.4772C385.064 40.6804 389.375 32.882 393.681 25.082C395.28 22.2118 396.082 20.772 397.681 17.8924H398.814V33.4457C398.814 38.5836 398.814 43.7246 398.814 48.8686C403.332 48.9432 407.855 49.0255 412.383 49.1155C412.364 32.7577 412.344 16.3983 412.323 0.0373535L395.718 0.0513456Z" fill="#3CC5D1"/>
<path d="M450.675 0.0515137C440.766 16.5336 430.753 32.9489 420.635 49.2974C425.638 49.4093 430.642 49.5273 435.646 49.6516C438.309 45.458 439.645 43.3194 442.308 39.0746C454.573 39.3417 466.838 39.643 479.103 39.9785C481.536 44.4423 482.752 46.6882 485.185 51.1939C490.459 51.3958 495.734 51.6023 501.011 51.8136C491.133 34.4648 481.101 17.2108 470.916 0.0515137H450.675ZM445.999 30.8413C450.735 23.1594 455.448 15.4619 460.139 7.74897H461.166C465.906 15.6142 470.613 23.4979 475.288 31.4004C465.523 31.1985 455.76 31.0121 445.999 30.8413Z" fill="#3CC5D1"/>
<path d="M565.441 32.118C567.396 31.2291 569.105 29.8673 570.417 28.1528C571.518 26.689 572.318 25.0178 572.772 23.2371C573.158 21.7363 573.362 20.1935 573.38 18.6428V16.8536C573.365 14.9888 573.19 13.1288 572.855 11.2949C572.495 9.30773 571.708 7.42452 570.551 5.77803C569.35 4.05403 567.498 2.65619 564.994 1.58451C562.491 0.512829 559.049 -0.0151987 554.669 0.000332847H501.767C501.767 0.000332847 510.166 1.57053 510.18 7.18054C510.207 22.1996 510.233 37.2171 510.258 52.233C514.783 52.4287 519.304 52.6306 523.822 52.8387C523.822 46.1725 523.81 39.5049 523.786 32.8356L526.969 32.9288C532.383 33.0872 535.06 33.8327 538.64 35.1886C543.085 36.905 547.338 39.0915 551.329 41.7119C558.55 46.5205 565.727 51.3881 572.859 56.3147C579.491 56.7092 586.118 57.1161 592.74 57.5355C581.065 49.2789 569.132 41.2972 556.968 33.8001C560.461 33.7256 563.285 33.1649 565.441 32.118ZM546.168 25.0776C544.113 25.118 541.785 25.1086 539.184 25.0496C536.99 24.9968 534.627 24.913 532.093 24.798C529.559 24.6831 526.785 24.5014 523.772 24.2528L523.744 8.64362L551.789 8.87193C554.803 8.89367 556.893 9.59104 558.06 10.964C559.239 12.3649 559.864 14.1573 559.816 15.9963C559.816 16.849 559.816 17.2776 559.816 18.1303C559.855 18.9905 559.717 19.8497 559.408 20.6522C559.099 21.4548 558.627 22.183 558.023 22.7898C556.83 23.9686 554.687 24.7141 551.711 24.9052C550.094 24.9704 548.223 25.0124 546.168 25.0776Z" fill="#3CC5D1"/>
<path d="M644.449 0.0605722V43.2678C644.449 46.399 643.629 48.4756 641.989 49.4975C640.258 50.5363 638.248 50.9976 636.244 50.8162C628.991 50.3626 621.738 49.9262 614.483 49.5069C612.392 49.4478 610.361 48.7884 608.627 47.6058C607.051 46.4782 606.262 44.3861 606.259 41.3295L606.217 0.0559082H592.653C592.671 13.4752 592.688 26.896 592.703 40.3184C592.51 44.4187 593.855 49.7585 596.417 53.0294C599.495 56.9573 604.71 58.3971 609.461 58.6208C620.104 59.3476 630.744 60.1103 641.381 60.9086C645.62 61.2254 648.937 60.7176 651.333 59.3523C653.708 58.0066 655.527 55.8442 656.461 53.2577C657.488 50.5645 658 47.3355 658 43.5986V0.0605722H644.449Z" fill="#3CC5D1"/>
</svg>
